X: 1
T: My Sweetest Lesbia
M: 3/4
L: 1/8
R: waltz
K: Gmaj
G G A B2 A  |c c c B A2 | d d c B2 A |
c2 c B>c d | A2 z A A G | F2 D |
d2 c B2 A | G2 B2 A G | F2 G |
A2 d2 c A  | B2 z | B B c d2 B |
c2 e2 c d   | B2 z | G B c d2 B |
d2 A2 c B | A2 c4 B2 A2 A2 | G8 |]
